storage/app/icons/phosphoricons/duotone/film-reel-duotone.svg

<svg xmlns="http://www.w3.org/2000/svg" fill="currentColor" viewBox="0 0 256 256"><path d="M128 32a96 96 0 1 0 96 96 96 96 0 0 0-96-96M80 144a16 16 0 1 1 16-16 16 16 0 0 1-16 16m48 48a16 16 0 1 1 16-16 16 16 0 0 1-16 16m0-96a16 16 0 1 1 16-16 16 16 0 0 1-16 16m48 48a16 16 0 1 1 16-16 16 16 0 0 1-16 16" opacity=".2"/><path d="M232 216h-48.64A103.95 103.95 0 1 0 128 232h104a8 8 0 0 0 0-16M40 128a88 88 0 1 1 88 88 88.1 88.1 0 0 1-88-88m88-24a24 24 0 1 0-24-24 24 24 0 0 0 24 24m0-32a8 8 0 1 1-8 8 8 8 0 0 1 8-8m24 104a24 24 0 1 0-24 24 24 24 0 0 0 24-24m-32 0a8 8 0 1 1 8 8 8 8 0 0 1-8-8m56-24a24 24 0 1 0-24-24 24 24 0 0 0 24 24m0-32a8 8 0 1 1-8 8 8 8 0 0 1 8-8m-96-16a24 24 0 1 0 24 24 24 24 0 0 0-24-24m0 32a8 8 0 1 1 8-8 8 8 0 0 1-8 8"/></svg>

<svg xmlns="http://www.w3.org/2000/svg" viewBox="0 0 256 256" fill="currentColor"><path d="M128,32a96,96,0,1,0,96,96A96,96,0,0,0,128,32ZM80,144a16,16,0,1,1,16-16A16,16,0,0,1,80,144Zm48,48a16,16,0,1,1,16-16A16,16,0,0,1,128,192Zm0-96a16,16,0,1,1,16-16A16,16,0,0,1,128,96Zm48,48a16,16,0,1,1,16-16A16,16,0,0,1,176,144Z" opacity="0.2"/><path d="M232,216H183.36A103.95,103.95,0,1,0,128,232H232a8,8,0,0,0,0-16ZM40,128a88,88,0,1,1,88,88A88.1,88.1,0,0,1,40,128Zm88-24a24,24,0,1,0-24-24A24,24,0,0,0,128,104Zm0-32a8,8,0,1,1-8,8A8,8,0,0,1,128,72Zm24,104a24,24,0,1,0-24,24A24,24,0,0,0,152,176Zm-32,0a8,8,0,1,1,8,8A8,8,0,0,1,120,176Zm56-24a24,24,0,1,0-24-24A24,24,0,0,0,176,152Zm0-32a8,8,0,1,1-8,8A8,8,0,0,1,176,120ZM80,104a24,24,0,1,0,24,24A24,24,0,0,0,80,104Zm0,32a8,8,0,1,1,8-8A8,8,0,0,1,80,136Z"/></svg>
